!!!OTL: "Kuhreigen" HAR KUHLI
!!!ARE: Europa, Mitteleuropa, Oberhaslithal
!!!SCT: Z1309
!!!YEM: Copyright 1995, estate of Helmut Schaffrath.
**kern
*ICvox
*Ivox
!! Mixed meters:  3/8; 2/4
*M2/4
*k[b-]
*F:
{8cc
=1
8cc
8a
8cc
=2
8b-
8g
8cc
=3
8cc
8a
8cc
=4
8b-
8g}
{8f
=5
8f
8g
8f
=6
8f
8g
8f
=7
8f
8g
8f
=8
8f
8g}
{8f
=9
4a
8a
=10
4bn
8bn
=11
4cc
8cc
=12
8cc
8a}
{8cc
=13
8b-
8g
8cc
=14
8cc
8a
8cc
=15
8b-
8g}
{8f
=16
8f
8g
8f
=17
8f
8g
8f
=18
8f
8g
8f
=19
8f
8g}
{8f
=20
4a
8a
=21
4bn
16bn
16dd
=22
4cc
8cc
=23
8a
8a}
{8b-
=24
8g
8g
8cc
=25
8a
8a
8b-
=26
8g
8g
8cc
=27
4a
8f
=28
4.f}
=29
{8cc
=30
8b-
16a
16a
8g
8f
=31
*M3/8
8e
8d
8c}
=32
{8cc
=33
*M2/4
8a
8f
8e
8g
=34
*M3/8
4f
8f}
=35
{8f
=36
*M2/4
8e
8g
8g
8e
=37
*M3/8
8f
8a
8a}
=38
{8f
=39
*M2/4
8e
8g
8g
8e
=40
*M3/8
8f
8a
8a}
=41
{8cc
=42
*M2/4
8bn
8cc
8a
8e
=43
4f
8f}
==
!!!AGN: Handwerker -, Bauern - Lied
!!!ONB: ESAC (Essen Associative Code) Database: ZUCCAL
!!!AMT: irregular
!!!AIN: vox
!!!EED: Helmut Schaffrath
!!!EEV: 1.0
*-
